X:1
T:Going to the Well for Water
T:the Kaiser
T:Trotting To Larne
M:6/8
L:1/8
R:jig
D:Shetland Sessions Vol 1
Z:Jeff Lindqvist
N:Paul de Grae notes:
N:AKA "Going to the Well for Water" (also the name of another slide) or "The Kaiser",
N:pronounced "kaysher", the nickname of a local character in Sliabh Luachra.
K:D
A2f A2f|A2f fed|B2g B2g|B2g gfe|
~c3 BcB|Ace a2f|gec ABc|1 dfe ~d3:|2 dfe d2e||
|:fgf fed|efe edc|ded dcB|cdc cBA|
G2B G2B|F2A F2A|~E3 e2d|1 cBc d2e:|cBc ~d3||
